X:1
T:More Abundantly
T:More Abundantly
T:Thoro Harris
T:Thoro Harris, 1914
T:Public Domain Courtesy of the Cyber Hymnal™
T:Public Domain Courtesy of the Cyber Hymnal™
C:Thoro Harris
Z:Public Domain
Z:Courtesy of the Cyber Hymnal™
%%score ( 1 2 ) ( 3 4 )
L:1/8
Q:1/4=110
M:4/4
K:G
V:1 treble 
V:2 treble 
V:3 bass 
V:4 bass 
V:1
 [B,D][B,D][B,G][CA] [DB] [DB]2 z | [DB][DB][DA][^B,G] [DA]3 z | DD[DA][GB] [Fc] [Fc]2 z | %3
w: 1.~Are you trust- ing Je- sus,|All a- long the way?|Does He grow more pre- cious|
w: 2.~For His match- less fa- vor,|Mag- ni- fy the name|Of our gra- cious Sav- ior|
w: 3.~Come to Him be- liev- ing,|Heark- en to His call;|All from Him re- ceiv- ing,|
 [Fe][Fe][Gd][Dc] [DB]3 z | DD[DG][FA] [GB] [GB]2 z | [=FB][FB][FA][FG] [Ec]3 z | %6
w: To your heart each day?|Are you His dis- ci- ple?|Test His Word and see,|
w: Who from glo- ry came;|Let the saints a- dore Him|For this wond- rous Word,|
w: Yield to Him your all;|Je- sus will ac- cept you|When to Him you flee;|
 [Ac][Ac][^GB]A [Gd][GB]=G[GA] | [GB]2 [FA]2 G3 z ||"^Refrain" [Gd]3 [Gd] [Ge][Gd] [DB]2 | %9
w: He will give the Spir- it more a-|bun- dant- ly.|More a- bun- dant- ly,|
w: Seal- ing our re- demp- tion thro’ the|crim- son flood.||
w: He will grant His bless- ing more a-|bun- dant- ly.||
 [DB]3 [DB] [Ec][DB] [B,G]2 | [EG][EG][DF][CE] [B,D]3 [DG] | [GB][GB][Ac][GB] [FA]4 | %12
w: More a- bun- dant- ly,|“That they might have life And|more a- bun- dant- ly”;|
w: |||
w: |||
 [Gd]3 [Gd] [Ge][Gd] [DB]2 | [^DB]3 [DB] [Dc][DB] [EG]2 | [Gc][Gc][Gd][Ge] [Gd][GB]G[GA] | %15
w: More a- bun- dant- ly,|More a- bun- dant- ly,|“That they might have life And more a-|
w: |||
w: |||
 [GB]2 [FA]2 [DG]4 |] %16
w: bun- dant- ly.”|
w: |
w: |
V:2
 x8 | x8 | DD x6 | x8 | DD x6 | x8 | x3 A x =G x2 | x4 G3 x || x8 | x8 | x8 | x8 | x8 | x8 | %14
 x6 G x | x8 |] %16
V:3
 [G,,G,][A,,G,][A,,G,][A,,G,] [A,,G,] [A,,G,]2 z | G,G,[F,A,][E,A,] [D,F,]3 z | %2
w: ~ ~ ~ ~ ~ ~|~ ~ ~ ~ ~|
 [D,F,][D,F,][D,F,][D,G,] [D,A,] [D,A,]2 z | [D,C][D,C][E,B,][F,A,] G,3 z | %4
w: ~ ~ ~ ~ ~ ~|~ ~ ~ ~ ~|
 [G,B,][G,B,][G,B,][G,C] [G,D] [G,D]2 z | [G,D][G,D][G,C][G,B,] [C,C]3 z | %6
w: ~ ~ ~ ~ ~ ~|~ ~ ~ ~ ~|
 [A,,E][A,,E][B,,E][C,E] [B,,D][D,D][E,^C][_E,C] | [D,D]2 [D,C]2 [G,B,]3 z || %8
w: ~ ~ ~ ~ ~ ~ ~ ~|~ ~ ~|
 [G,B,][G,B,][G,B,][G,B,] [G,C][G,B,] G,2 | [G,,G,][G,,G,][G,,G,][G,,G,] [G,,G,][G,,G,] [G,,G,]2 | %10
w: More and more a- bun- dant- ly,|More and more a- bun- dant- ly,|
 [C,G,][C,G,][C,G,][E,G,] G,3 [G,B,] | [G,D][G,D][F,D][G,D] (D2 C2) | %12
w: ~ ~ ~ ~ ~ ~|~ ~ ~ ~ ~ *|
 [G,B,][G,B,][G,B,][G,B,] [G,C][G,B,] G,2 | [F,A,][F,A,][F,A,][F,A,] [F,A,][F,A,] [F,A,]2 | %14
w: More and more a- bun- dant- ly,|More and more a- bun- dant- ly,|
 [E,C][E,C][D,B,][^C,^A,] [D,B,][D,D][E,^C][_E,C] | [D,D]2 [D,C]2 [G,B,]4 |] %16
w: ||
V:4
 x8 | G,G, x6 | x8 | x4 G,3 x | x8 | x8 | x8 | x8 || x6 G,2 | x8 | x4 G,3 x | x4 D,4 | x6 G,2 | %13
 x8 | x8 | x8 |] %16

